poll.svg

<svg fill="currentColor" viewBox="0 0 24 24"><path d="M3 22V8h4v14zm7 0V2h4v20zm7 0v-8h4v8z"/></svg>

<svg  viewBox="0 0 24 24" fill="currentColor"><path  d="M3,22V8H7V22H3M10,22V2H14V22H10M17,22V14H21V22H17Z"/></svg>
